icons/glyphs/glyph-notebook.svg

<?xml version="1.0" encoding="UTF-8" standalone="no"?><svg height="16" viewBox="0 0 4.2333332 4.2333332" width="16" xmlns="http://www.w3.org/2000/svg"><sodipodi:namedview/><metadata><rdf:RDF><cc:Work><dc:format>image/svg+xml</dc:format><dc:type/><dc:title/></cc:Work></rdf:RDF></metadata><path d="m0 0v2.5917969h1.6777344v1.8769531h-1.6777344v2.5917969h1.6777344v1.8789062h-1.6777344v2.5917969h1.6777344v1.876953h-1.6777344v2.591797h2.2792969 1.6464843 11.4746098c.332398 0 .599609-.267207.599609-.599609v-14.80078162c0-.33240002-.267211-.59960938-.599609-.59960938h-11.4746098-1.6464843z" fill="#d0d0d0" stroke-width="1.660483" transform="scale(.26458333)"/></svg>

<?xml version="1.0" encoding="UTF-8" standalone="no"?>
<!-- Created with Inkscape (http://www.inkscape.org/) -->

<svg
   xmlns:dc="http://purl.org/dc/elements/1.1/"
   xmlns:cc="http://creativecommons.org/ns#"
   xmlns:rdf="http://www.w3.org/1999/02/22-rdf-syntax-ns#"
   xmlns:svg="http://www.w3.org/2000/svg"
   xmlns="http://www.w3.org/2000/svg"
   xmlns:sodipodi="http://sodipodi.sourceforge.net/DTD/sodipodi-0.dtd"
   xmlns:inkscape="http://www.inkscape.org/namespaces/inkscape"
   width="16"
   height="16"
   viewBox="0 0 4.2333332 4.2333332"
   version="1.1"
   id="svg8"
   inkscape:version="0.92+devel (7f3bd2b258, 2017-08-07, custom)"
   sodipodi:docname="glyph-notebook.svg">
  <defs
     id="defs2" />
  <sodipodi:namedview
     id="base"
     pagecolor="#002466"
     bordercolor="#ffffff"
     borderopacity="0.38039216"
     inkscape:pageopacity="1"
     inkscape:pageshadow="2"
     inkscape:zoom="25.25"
     inkscape:cx="7.970297"
     inkscape:cy="8"
     inkscape:document-units="px"
     inkscape:current-layer="svg8"
     inkscape:document-rotation="0"
     showgrid="false"
     inkscape:showpageshadow="false"
     borderlayer="true"
     inkscape:window-width="1920"
     inkscape:window-height="1027"
     inkscape:window-x="0"
     inkscape:window-y="24"
     inkscape:window-maximized="1"
     units="px"
     inkscape:snap-page="true"
     inkscape:object-paths="true"
     inkscape:snap-intersection-paths="true"
     inkscape:snap-grids="false"
     inkscape:snap-to-guides="false" />
  <metadata
     id="metadata5">
    <rdf:RDF>
      <cc:Work
         rdf:about="">
        <dc:format>image/svg+xml</dc:format>
        <dc:type
           rdf:resource="http://purl.org/dc/dcmitype/StillImage" />
        <dc:title></dc:title>
      </cc:Work>
    </rdf:RDF>
  </metadata>
  <path
     style="fill:#d0d0d0;stroke-width:1.66048288"
     d="M 0 0 L 0 2.5917969 L 1.6777344 2.5917969 L 1.6777344 4.46875 L 0 4.46875 L 0 7.0605469 L 1.6777344 7.0605469 L 1.6777344 8.9394531 L 0 8.9394531 L 0 11.53125 L 1.6777344 11.53125 L 1.6777344 13.408203 L 0 13.408203 L 0 16 L 2.2792969 16 L 3.9257812 16 L 15.400391 16 C 15.732789 16 16 15.732793 16 15.400391 L 16 0.59960938 C 16 0.26720936 15.732789 0 15.400391 0 L 3.9257812 0 L 2.2792969 0 L 0 0 z "
     transform="scale(0.26458333)"
     id="rect812"
     inkscape:label="#" />
</svg>
